!!!COM: Paul Hindemith
!!!OTL: [T652_Hin-w70p94h19m9-23]
**kern	**dynam	**kern	**dynam	**kern	**dynam	**kern	**dynam	**kern	**dynam	**kern	**dynam	**kern	**dynam	**kern	**dynam	**kern	**dynam
*grp:A	*	*grp:C	*	*grp:C	*	*	*	*grp:B	*	*grp:A	*	*grp:A	*	*grp:A	*	*grp:A	*
*part9	*part9	*part8	*part8	*part7	*part7	*part6	*part6	*part5	*part5	*part4	*part4	*part3	*part3	*part2	*part2	*part1	*part1
*staff9	*	*staff8	*	*staff7	*	*staff6	*	*staff5	*	*staff4	*	*staff3	*	*staff2	*	*staff1	*
*I"Contrabass	*	*I"Violoncello	*	*I"Viola	*	*I"Violin 2.	*	*I"Solo Violin	*	*I"Bassoon 1. 2.	*	*I"Bass Clarinet [C]	*	*I"Clarinet in Bb 1.2.	*	*I"Flute 1.2.	*
*I'Cb.	*	*I'Vc.	*	*I'Vla.	*	*I'Vln. 2	*	*I'Vln.	*	*I'Bsn.	*	*I'B. Cl.	*	*I'Cl.	*	*I'Fl.	*
*ICstr	*	*ICstr	*	*ICstr	*	*ICstr	*	*ICstr	*	*ICww	*	*ICww	*	*ICww	*	*ICww	*
*Icbass	*	*Icello	*	*Iviola	*	*Ivioln	*	*Ivioln	*	*Ifagot	*	*Iclarb	*	*Iclars	*	*Iflt	*
*clefF4	*	*clefF4	*	*clefC3	*	*clefG2	*	*clefG2	*	*clefF4	*	*clefF4	*	*clefG2	*	*clefG2	*
*ITrd7c12	*	*	*	*	*	*	*	*	*	*	*	*ITrd0c12	*	*ITrd1c2	*	*	*
*k[]	*	*k[]	*	*k[]	*	*k[]	*	*k[]	*	*k[]	*	*k[0]	*	*k[b-e-]	*	*k[]	*
*	*	*	*	*	*	*	*	*	*	*	*	*	*	*	*	*	*
*M2/4	*	*M2/4	*	*M2/4	*	*M2/4	*	*M2/4	*	*M2/4	*	*M2/4	*	*M2/4	*	*M2/4	*
=1	=1	=1	=1	=1	=1	=1	=1	=1	=1	=1	=1	=1	=1	=1	=1	=1	=1
!LO:TX:a:t=(pizz.)	!	!	!LO:DY:ed=brack	!	!LO:DY:ed=brack	!	!LO:DY:ed=brack	!	!	!	!	!	!	!	!	!LO:TX:t=[[quarter]=152]	!
4ryy	4ryy	8ryy	4ryy	8ryy	4ryy	8ryy	4ryy	8ee-XL)j	.	16ryy	4ryy	16ryy	4ryy	16ryy	4ryy	2ryy	.
.	.	.	.	.	.	.	.	.	.	16ryy	.	16ryy	.	16ryy	.	.	.
.	.	8ryy	.	8ryy	4ryy	8ryy	.	(8f	4ryy	8ryy	.	8ryy	.	8ryy	.	.	.
8ryy	.	4ryy	4ryy	4ryy	.	4ryy	.	8g-X	.	8ryy	.	8ryy	.	8ryy	.	.	.
8ryy	.	.	.	.	.	.	.	8a-XJ	.	8ryy	.	8ryy	.	8ryy	.	.	.
=2	=2	=2	=2	=2	=2	=2	=2	=2	=2	=2	=2	=2	=2	=2	=2	=2	=2
8ryy	.	4ryy	.	2ryy	.	2ryy	.	8b-XL	.	8ryy	.	8ryy	.	8ryy	.	2ryy	.
4ryy	.	.	.	.	.	.	.	8ccn	.	16ryy	.	16ryy	.	16ryy	.	.	.
.	.	.	.	.	.	.	.	.	.	16ryy	.	16ryy	.	16ryy	.	.	.
.	.	8ryy	.	.	.	.	.	8dd-X	.	8ryy	.	8ryy	.	8ryy	.	.	.
8ryy	.	8ryy	.	.	.	.	.	8ee-XJ)	.	8ryy	.	8ryy	.	8ryy	.	.	.
=3	=3	=3	=3	=3	=3	=3	=3	=3	=3	=3	=3	=3	=3	=3	=3	=3	=3
8ryy	.	4.ryy	.	2ryy	.	2ryy	.	(8ffL	.	8ryy	.	8ryy	.	8ryy	.	2ryy	.
8ryy	.	.	.	.	.	.	.	8gg-X	.	8ryy	.	8ryy	.	8ryy	.	.	.
4ryy	.	.	.	.	.	.	.	8aa-X	.	16ryy	.	16ryy	.	16ryy	.	.	.
.	.	.	.	.	.	.	.	.	.	16ryy	.	16ryy	.	16ryy	.	.	.
.	.	8ryy	.	.	.	.	.	8bb-XJ	.	8ryy	.	8ryy	.	8ryy	.	.	.
=4	=4	=4	=4	=4	=4	=4	=4	=4	=4	=4	=4	=4	=4	=4	=4	=4	=4
8ryy	.	4.ryy	.	2ryy	.	2ryy	.	8cccnL	.	8ryy	.	8ryy	.	8ryy	.	2ryy	.
8ryy	.	.	.	.	.	.	.	8ddd-X	.	8ryy	.	8ryy	.	8ryy	.	.	.
8ryy	.	.	.	.	.	.	.	8eee-X	.	8ryy	.	8ryy	.	8ryy	.	.	.
8ryy	.	8ryy	.	.	.	.	.	8fffJ)	.	16ryy	.	16ryy	.	16ryy	.	.	.
.	.	.	.	.	.	.	.	.	.	16ryy	.	16ryy	.	16ryy	.	.	.
=5	=5	=5	=5	=5	=5	=5	=5	=5	=5	=5	=5	=5	=5	=5	=5	=5	=5
8ryy	.	4ryy	.	4ryy	.	2ryy	.	4ggg-X	.	8ryy	.	8ryy	.	8ryy	.	2ryy	.
8ryy	.	.	.	.	.	.	.	.	.	8ryy	.	8ryy	.	8ryy	.	.	.
8ryy	.	8ryy	.	4ryy	4ryy	.	.	(4fff	.	8ryy	.	8ryy	.	8ryy	.	.	.
8ryy	.	8ryy	.	.	.	.	.	.	.	8ryy	.	8ryy	.	8ryy	.	.	.
=6	=6	=6	=6	=6	=6	=6	=6	=6	=6	=6	=6	=6	=6	=6	=6	=6	=6
4ryy	4ryy	8ryy	4ryy	4ryy	4ryy	2ryy	.	[2bbb-X)	4ryy	16ryy	4ryy	16ryy	4ryy	16ryy	4ryy	2ryy	.
.	.	.	.	.	.	.	.	.	.	16ryy	.	16ryy	.	16ryy	.	.	.
.	.	8ryy	.	.	.	.	.	.	.	8ryy	.	8ryy	.	8ryy	.	.	.
8ryy	.	4ryy	4ryy	8ryy	.	.	.	.	.	8ryy	.	8ryy	.	8ryy	.	.	.
8ryy	4ryy	.	.	8ryy	4ryy	.	.	.	.	8ryy	4ryy	8ryy	4ryy	8ryy	4ryy	.	.
=7	=7	=7	=7	=7	=7	=7	=7	=7	=7	=7	=7	=7	=7	=7	=7	=7	=7
8ryy	.	8ryy	.	4.ryy	.	2ryy	.	4bbb-]	.	8ryy	.	8ryy	.	8ryy	.	2ryy	.
4ryy	.	8ryy	.	.	.	.	.	.	.	16ryy	.	16ryy	.	16ryy	.	.	.
.	.	.	.	.	.	.	.	.	.	16ryy	.	16ryy	.	16ryy	.	.	.
.	.	8ryy	.	.	.	.	.	[4bbb-X	.	8ryy	.	8ryy	.	8ryy	.	.	.
8ryy	4ryy	8ryy	4ryy	8ryy	4ryy	.	.	.	4ryy	8ryy	4ryy	8ryy	4ryy	8ryy	4ryy	.	.
=8	=8	=8	=8	=8	=8	=8	=8	=8	=8	=8	=8	=8	=8	=8	=8	=8	=8
8ryy	.	2ryy	4ryy	4.ryy	.	2ryy	.	(8bbb-L]	.	8ryy	.	8ryy	.	8ryy	.	2ryy	.
8ryy	.	.	.	.	.	.	.	8aaa-X	.	8ryy	.	8ryy	.	8ryy	.	.	.
4ryy	4ryy	.	.	.	.	.	.	8ggg-X	.	16ryy	.	16ryy	.	16ryy	.	.	.
.	.	.	.	.	.	.	.	.	.	16ryy	.	16ryy	.	16ryy	.	.	.
.	.	.	.	8ryy	4ryy	.	.	8fffJ	4ryy	8ryy	4ryy	8ryy	4ryy	8ryy	4ryy	.	.
=9	=9	=9	=9	=9	=9	=9	=9	=9	=9	=9	=9	=9	=9	=9	=9	=9	=9
8ryy	.	2ryy	4ryy	4.ryy	4ryy	2ryy	.	8ggg-X)	.	8ryy	.	8ryy	.	8ryy	.	4ryy	.
8ryy	.	.	.	.	.	.	.	8r	.	8ryy	.	8ryy	.	8ryy	.	.	.
*	*	*	*	*	*	*	*	*Xtuplet	*	*	*	*	*	*	*	*	*
8ryy	.	.	.	.	.	.	.	(12eee-XL	4ryy	8ryy	.	8ryy	.	8ryy	.	8ryy	.
.	.	.	.	.	.	.	.	12ddd	.	.	.	.	.	.	.	.	.
8ryy	4ryy	.	.	8ryy	.	.	.	.	.	16ryy	4ryy	16ryy	4ryy	16ryy	4ryy	16ryy	4ryy
.	.	.	.	.	.	.	.	12eee-J	.	.	.	.	.	.	.	.	.
.	.	.	.	.	.	.	.	.	.	16ryy	.	16ryy	.	16ryy	.	16ryy	.
=10	=10	=10	=10	=10	=10	=10	=10	=10	=10	=10	=10	=10	=10	=10	=10	=10	=10
8ryy	.	4ryy	.	2ryy	.	2ryy	.	12bb-XL	.	8ryy	.	8ryy	.	8ryy	.	8ryy	.
.	.	.	.	.	.	.	.	12aa	.	.	.	.	.	.	.	.	.
8ryy	.	.	.	.	.	.	.	.	.	8ryy	.	8ryy	.	8ryy	.	8ryy	.
.	.	.	.	.	.	.	.	12bb-J)	.	.	.	.	.	.	.	.	.
8ryy	.	4ryy	.	.	.	.	.	(12ffL	.	8ryy	.	8ryy	.	8ryy	.	8ryy	.
.	.	.	.	.	.	.	.	12gg-X	.	.	.	.	.	.	.	.	.
8ryy	.	.	.	.	.	.	.	.	.	8ryy	.	8ryy	.	8ryy	.	8ryy	.
.	.	.	.	.	.	.	.	12aa-XJ	.	.	.	.	.	.	.	.	.
=11	=11	=11	=11	=11	=11	=11	=11	=11	=11	=11	=11	=11	=11	=11	=11	=11	=11
4ryy	.	2ryy	.	2ryy	.	2ryy	.	12ddd-XL	.	16ryy	.	16ryy	.	16ryy	.	16ryy	.
.	.	.	.	.	.	.	.	.	.	16ryy	.	16ryy	.	16ryy	.	16ryy	.
.	.	.	.	.	.	.	.	12cccn	.	.	.	.	.	.	.	.	.
.	.	.	.	.	.	.	.	.	.	8ryy	.	8ryy	.	8ryy	.	8ryy	.
.	.	.	.	.	.	.	.	12bb-XJ	.	.	.	.	.	.	.	.	.
8ryy	.	.	.	.	.	.	.	12aa-XL	.	8ryy	.	8ryy	.	8ryy	.	8ryy	.
.	.	.	.	.	.	.	.	12ggn	.	.	.	.	.	.	.	.	.
8ryy	.	.	.	.	.	.	.	.	.	8ryy	.	8ryy	.	8ryy	.	8ryy	.
.	.	.	.	.	.	.	.	12gg-XJ)	.	.	.	.	.	.	.	.	.
=12	=12	=12	=12	=12	=12	=12	=12	=12	=12	=12	=12	=12	=12	=12	=12	=12	=12
8ryy	.	4ryy	.	2ryy	.	2ryy	.	(12ee-XL	.	8ryy	.	8ryy	.	8ryy	.	8ryy	.
.	.	.	.	.	.	.	.	12ff	.	.	.	.	.	.	.	.	.
4ryy	.	.	.	.	.	.	.	.	.	16ryy	.	16ryy	.	16ryy	.	16ryy	.
.	.	.	.	.	.	.	.	12ee-J	.	.	.	.	.	.	.	.	.
.	.	.	.	.	.	.	.	.	.	16ryy	.	16ryy	.	16ryy	.	16ryy	.
.	.	4ryy	.	.	.	.	.	12dd-XL	.	8ryy	.	8ryy	.	8ryy	.	8ryy	.
.	.	.	.	.	.	.	.	12ff	.	.	.	.	.	.	.	.	.
8ryy	.	.	.	.	.	.	.	.	.	8ryy	.	8ryy	.	8ryy	.	8ryy	.
.	.	.	.	.	.	.	.	12dd-J	.	.	.	.	.	.	.	.	.
=13	=13	=13	=13	=13	=13	=13	=13	=13	=13	=13	=13	=13	=13	=13	=13	=13	=13
8ryy	4ryy	4ryy	4ryy	2ryy	.	2ryy	.	12b-XL)	.	8ryy	.	8ryy	.	8ryy	.	8ryy	.
.	.	.	.	.	.	.	.	(12f	4ryy	.	.	.	.	.	.	.	.
8ryy	.	.	.	.	.	.	.	.	.	8ryy	.	8ryy	.	8ryy	.	8ryy	.
.	.	.	.	.	.	.	.	12g-XJ	.	.	.	.	.	.	.	.	.
4ryy	.	4ryy	.	.	.	.	.	12gnL	.	16ryy	4ryy	16ryy	4ryy	16ryy	4ryy	16ryy	4ryy
.	.	.	.	.	.	.	.	.	.	16ryy	.	16ryy	.	16ryy	.	16ryy	.
.	.	.	.	.	.	.	.	12a-X	.	.	.	.	.	.	.	.	.
.	.	.	.	.	.	.	.	.	.	8ryy	.	8ryy	.	8ryy	.	8ryy	.
.	.	.	.	.	.	.	.	12anJ)	.	.	.	.	.	.	.	.	.
=14	=14	=14	=14	=14	=14	=14	=14	=14	=14	=14	=14	=14	=14	=14	=14	=14	=14
8ryy	.	2ryy	4ryy	2ryy	.	2ryy	.	(12ddnL	.	8ryy	.	8ryy	.	8ryy	.	8ryy	.
.	.	.	.	.	.	.	.	12a	.	.	.	.	.	.	.	.	.
8ryy	.	.	.	.	.	.	.	.	.	8ryy	.	8ryy	.	8ryy	.	8ryy	.
.	.	.	.	.	.	.	.	12ddJ	.	.	.	.	.	.	.	.	.
8ryy	.	.	.	.	.	.	.	12ggL	.	8ryy	.	8ryy	.	8ryy	.	8ryy	.
.	.	.	.	.	.	.	.	12dd	.	.	.	.	.	.	.	.	.
8ryy	4ryy	.	.	.	.	.	.	.	.	16ryy	.	16ryy	.	16ryy	.	16ryy	.
.	.	.	.	.	.	.	.	12ggJ	4ryy	.	.	.	.	.	.	.	.
.	.	.	.	.	.	.	.	.	.	16ryy	4ryy	16ryy	4ryy	16ryy	4ryy	16ryy	4ryy
=15	=15	=15	=15	=15	=15	=15	=15	=15	=15	=15	=15	=15	=15	=15	=15	=15	=15
8ryy	.	2ryy	.	2ryy	.	2ryy	.	12cccL	.	8ryy	.	8ryy	.	8ryy	.	8ryy	.
.	.	.	.	.	.	.	.	12gg	.	.	.	.	.	.	.	.	.
8ryy	.	.	.	.	.	.	.	.	.	8ryy	.	8ryy	.	8ryy	.	8ryy	.
.	.	.	.	.	.	.	.	12cccJ)	.	.	.	.	.	.	.	.	.
8ryy	.	.	.	.	.	.	.	(12fffL	.	8ryy	.	8ryy	.	8ryy	.	8ryy	.
.	.	.	.	.	.	.	.	12eee	.	.	.	.	.	.	.	.	.
8ryy	.	.	.	.	.	.	.	.	.	8ryy	.	8ryy	.	8ryy	.	8ryy	.
.	.	.	.	.	.	.	.	12eee-XJ)	.	.	.	.	.	.	.	.	.
=	=	=	=	=	=	=	=	=	=	=	=	=	=	=	=	=	=
*-	*-	*-	*-	*-	*-	*-	*-	*-	*-	*-	*-	*-	*-	*-	*-	*-	*-
!!!system-decoration: [(s1,s2,s3,s4)]s5[(s6,s7,s8,s9)]
!!!Xfilter: slurcheck
!!!RDF**kern: j = marked note, color="magenta", text="extra)"
